X: 1
T: McHugh's
M: 4/4
L: 1/8
R: reel
K: Edor
|:A|B2BA BdeB|dBAG FDD2|B2BA BdeB|dBAF E3:|
|:z|edBd efge|fdad fdd2|edBd efge|fedf e3d|
edBd efge|fdad fddf|g2ge f2fd|edBd e3||
